public/images/doc-faq.svg

<svg width="120" height="92" viewBox="0 0 120 92" fill="none" xmlns="http://www.w3.org/2000/svg">
<g id="doc-faq">
<path id="Vector" d="M55.7099 84.96H91.4799C93.5899 84.96 95.2999 83.25 95.2999 81.14V10.86C95.2999 8.74999 93.5899 7.03999 91.4799 7.03999H55.4199L55.7099 84.96Z" fill="#AFE0DD"/>
<path id="Vector_2" d="M15.6904 84.96H51.4804V7.03999H15.4304C13.3204 7.03999 11.6004 8.75999 11.6104 10.87L11.8704 81.15C11.8704 83.25 13.5804 84.95 15.6904 84.95V84.96Z" fill="#AFE0DD"/>
<g id="Group">
<path id="Vector_3" d="M26.4699 84.96H76.4999C81.1099 84.96 84.8399 81.22 84.8399 76.62H18.1299C18.1299 81.23 21.8699 84.96 26.4699 84.96Z" fill="white"/>
<path id="Vector_4" d="M76.4999 85.96H26.4699C21.3199 85.96 17.1299 81.77 17.1299 76.62C17.1299 76.07 17.5799 75.62 18.1299 75.62H84.8399C85.3899 75.62 85.8399 76.07 85.8399 76.62C85.8399 81.77 81.6499 85.96 76.4999 85.96ZM19.1899 77.61C19.6799 81.19 22.7599 83.95 26.4699 83.95H76.4999C80.2099 83.95 83.2899 81.18 83.7799 77.61H19.1899Z" fill="#13706D"/>
</g>
<g id="Group_2">
<path id="Vector_5" d="M22.7305 76.61H80.2305V49.99C80.2305 46.92 77.7405 44.43 74.6705 44.43H28.2905C25.2205 44.43 22.7305 46.92 22.7305 49.99V76.61Z" fill="white"/>
<path id="Vector_6" d="M80.2305 77.61H22.7305C22.1805 77.61 21.7305 77.16 21.7305 76.61V49.99C21.7305 46.37 24.6705 43.43 28.2905 43.43H74.6705C78.2905 43.43 81.2305 46.37 81.2305 49.99V76.61C81.2305 77.16 80.7805 77.61 80.2305 77.61ZM23.7305 75.61H79.2305V49.99C79.2305 47.48 77.1905 45.43 74.6705 45.43H28.2905C25.7805 45.43 23.7305 47.47 23.7305 49.99V75.61Z" fill="#13706D"/>
</g>
<g id="Group_3">
<path id="Vector_7" d="M53.0798 49.38L50.1798 54.48C49.6598 55.4 50.3198 56.53 51.3798 56.53C52.4398 56.53 53.0798 57.63 52.5898 58.55L43.5098 75.65H75.6398V49.38H53.0698H53.0798Z" fill="#AFE0DD"/>
<path id="Vector_8" d="M44.9897 62.57C45.4997 61.65 44.8297 60.53 43.7897 60.53H42.9797C41.9297 60.53 41.2697 59.41 41.7797 58.49L46.8097 49.38H28.2197V75.65H37.7697L44.9897 62.57Z" fill="#AFE0DD"/>
</g>
<g id="Group_4">
<g id="Group_5">
<path id="Vector_9" d="M82.1393 12.89C70.2793 13.82 60.6993 23.5 59.8793 35.38C59.5793 39.79 60.4493 43.97 62.2193 47.64L58.2393 60.33L71.2993 57.73C75.0793 60.08 79.5493 61.42 84.3393 61.38C97.4693 61.25 108.589 49.83 108.379 36.71C108.159 22.83 96.2993 11.78 82.1293 12.89H82.1393Z" fill="white"/>
<path id="Vector_10" d="M84.1097 62.38C79.5197 62.38 75.0397 61.14 71.1197 58.79L58.4397 61.31C58.0897 61.38 57.7297 61.26 57.4997 61C57.2597 60.74 57.1797 60.37 57.2897 60.03L61.1497 47.71C59.3697 43.86 58.5897 39.59 58.8797 35.31C59.7297 22.94 69.6897 12.87 82.0497 11.9C89.1197 11.34 95.8897 13.65 101.11 18.4C106.26 23.08 109.27 29.75 109.38 36.7C109.48 43.22 106.82 49.76 102.07 54.63C97.3297 59.5 90.8697 62.32 84.3497 62.39C84.2697 62.39 84.1797 62.39 84.0997 62.39L84.1097 62.38ZM71.3097 56.73C71.4997 56.73 71.6797 56.78 71.8397 56.88C75.5897 59.21 79.9297 60.45 84.3497 60.38C90.3397 60.32 96.2797 57.71 100.66 53.23C105.04 48.74 107.5 42.72 107.4 36.73C107.3 30.33 104.52 24.19 99.7797 19.88C94.9797 15.51 88.7597 13.38 82.2197 13.9C70.8397 14.8 61.6697 24.07 60.8897 35.46C60.6097 39.53 61.3897 43.59 63.1297 47.22C63.2397 47.45 63.2597 47.71 63.1797 47.95L59.7097 59.04L71.1197 56.77C71.1797 56.76 71.2497 56.75 71.3197 56.75L71.3097 56.73Z" fill="#13706D"/>
</g>
<path id="Vector_11" d="M83.5801 49.66C83.4501 49.66 83.3201 49.64 83.2001 49.59C83.0801 49.54 82.9701 49.47 82.8701 49.37C82.7801 49.28 82.7101 49.17 82.6601 49.05C82.6101 48.93 82.5801 48.8 82.5801 48.67C82.5801 48.53 82.6101 48.41 82.6601 48.28C82.7101 48.16 82.7801 48.05 82.8701 47.96C83.2401 47.58 83.9201 47.59 84.2901 47.96C84.3801 48.05 84.4501 48.16 84.5001 48.28C84.5601 48.4 84.5801 48.53 84.5801 48.67C84.5801 48.8 84.5601 48.93 84.5101 49.05C84.4501 49.17 84.3801 49.28 84.2901 49.37C84.1901 49.47 84.0901 49.54 83.9601 49.59C83.8401 49.64 83.7101 49.66 83.5801 49.66Z" fill="#13706D"/>
<g id="Group_6">
<path id="Vector_12" d="M83.5797 42.77V39.98C83.5797 39.53 83.6997 39.09 83.9197 38.7L84.0997 38.38C84.3697 37.9 84.8497 37.58 85.3997 37.49C87.8097 37.09 89.6397 35 89.6397 32.48C89.6397 29.68 87.3697 27.4 84.5597 27.4H83.2997C80.4997 27.4 78.2197 29.67 78.2197 32.48" fill="white"/>
<path id="Vector_13" d="M83.58 43.77C83.03 43.77 82.58 43.32 82.58 42.77V39.98C82.58 39.36 82.74 38.75 83.04 38.21L83.22 37.89C83.64 37.15 84.37 36.64 85.23 36.5C87.2 36.17 88.63 34.48 88.63 32.48C88.63 30.23 86.8 28.4 84.55 28.4H83.29C81.04 28.4 79.21 30.23 79.21 32.48C79.21 33.03 78.76 33.48 78.21 33.48C77.66 33.48 77.21 33.03 77.21 32.48C77.21 29.13 79.94 26.4 83.29 26.4H84.55C87.9 26.4 90.63 29.13 90.63 32.48C90.63 35.47 88.5 37.99 85.55 38.48C85.29 38.52 85.07 38.67 84.96 38.88L84.78 39.2C84.64 39.44 84.57 39.71 84.57 39.99V42.78C84.57 43.33 84.12 43.78 83.57 43.78L83.58 43.77Z" fill="#13706D"/>
</g>
</g>
</g>
</svg>

<svg xmlns="http://www.w3.org/2000/svg" width="120" height="92" fill="none"><path fill="#AFE0DD" d="M55.71 84.96h35.77a3.82 3.82 0 0 0 3.82-3.82V10.86a3.82 3.82 0 0 0-3.82-3.82H55.42zm-40.02 0h35.79V7.04H15.43c-2.11 0-3.83 1.72-3.82 3.83l.26 70.28c0 2.1 1.71 3.8 3.82 3.8z"/><path fill="#fff" d="M26.47 84.96H76.5c4.61 0 8.34-3.74 8.34-8.34H18.13c0 4.61 3.74 8.34 8.34 8.34"/><path fill="#13706D" d="M76.5 85.96H26.47c-5.15 0-9.34-4.19-9.34-9.34 0-.55.45-1 1-1h66.71c.55 0 1 .45 1 1 0 5.15-4.19 9.34-9.34 9.34m-57.31-8.35a7.355 7.355 0 0 0 7.28 6.34H76.5c3.71 0 6.79-2.77 7.28-6.34z"/><path fill="#fff" d="M22.73 76.61h57.5V49.99a5.56 5.56 0 0 0-5.56-5.56H28.29a5.56 5.56 0 0 0-5.56 5.56z"/><path fill="#13706D" d="M80.23 77.61h-57.5c-.55 0-1-.45-1-1V49.99c0-3.62 2.94-6.56 6.56-6.56h46.38c3.62 0 6.56 2.94 6.56 6.56v26.62c0 .55-.45 1-1 1m-56.5-2h55.5V49.99c0-2.51-2.04-4.56-4.56-4.56H28.29c-2.51 0-4.56 2.04-4.56 4.56z"/><path fill="#AFE0DD" d="m53.08 49.38-2.9 5.1c-.52.92.14 2.05 1.2 2.05s1.7 1.1 1.21 2.02l-9.08 17.1h32.13V49.38H53.07zm-8.09 13.19c.51-.92-.16-2.04-1.2-2.04h-.81a1.37 1.37 0 0 1-1.2-2.04l5.03-9.11H28.22v26.27h9.55z"/><path fill="#fff" d="M82.14 12.89c-11.86.93-21.44 10.61-22.26 22.49-.3 4.41.57 8.59 2.34 12.26l-3.98 12.69 13.06-2.6c3.78 2.35 8.25 3.69 13.04 3.65 13.13-.13 24.249-11.55 24.039-24.67-.22-13.88-12.08-24.93-26.25-23.82z"/><path fill="#13706D" d="M84.11 62.38c-4.59 0-9.07-1.24-12.99-3.59l-12.68 2.52a1 1 0 0 1-.94-.31.98.98 0 0 1-.21-.97l3.86-12.32a25.46 25.46 0 0 1-2.27-12.4c.85-12.37 10.81-22.44 23.17-23.41 7.07-.56 13.84 1.75 19.06 6.5a25.36 25.36 0 0 1 8.27 18.3c.1 6.52-2.56 13.06-7.31 17.93-4.74 4.87-11.2 7.69-17.72 7.76h-.25zm-12.8-5.65c.19 0 .37.05.53.15 3.75 2.33 8.09 3.57 12.51 3.5 5.99-.06 11.93-2.67 16.31-7.15 4.38-4.49 6.84-10.51 6.74-16.5-.1-6.4-2.88-12.54-7.62-16.85-4.8-4.37-11.02-6.5-17.56-5.98-11.38.9-20.55 10.17-21.33 21.56-.28 4.07.5 8.13 2.24 11.76.11.23.13.49.05.73l-3.47 11.09 11.41-2.27c.06-.01.13-.02.2-.02z"/><path fill="#13706D" d="M83.58 49.66a1 1 0 0 1-.71-.29 1 1 0 0 1-.21-.32 1 1 0 0 1-.08-.38 1.05 1.05 0 0 1 .29-.71c.37-.38 1.05-.37 1.42 0 .09.09.16.2.21.32.06.12.08.25.08.39 0 .13-.02.26-.07.38-.06.12-.13.23-.22.32a1 1 0 0 1-.71.29"/><path fill="#fff" d="M83.58 42.77v-2.79c0-.45.12-.89.34-1.28l.18-.32c.27-.48.75-.8 1.3-.89a5.08 5.08 0 0 0-.84-10.09H83.3a5.08 5.08 0 0 0-5.08 5.08"/><path fill="#13706D" d="M83.58 43.77c-.55 0-1-.45-1-1v-2.79c0-.62.16-1.23.46-1.77l.18-.32c.42-.74 1.15-1.25 2.01-1.39 1.97-.33 3.4-2.02 3.4-4.02 0-2.25-1.83-4.08-4.08-4.08h-1.26c-2.25 0-4.08 1.83-4.08 4.08 0 .55-.45 1-1 1s-1-.45-1-1a6.09 6.09 0 0 1 6.08-6.08h1.26a6.09 6.09 0 0 1 6.08 6.08c0 2.99-2.13 5.51-5.08 6-.26.04-.48.19-.59.4l-.18.32c-.14.24-.21.51-.21.79v2.79c0 .55-.45 1-1 1z"/></svg>
